X: 26947
T: Miss Campbell Of Saddell's
R: strathspey
M: 4/4
K: Cdorian
F|:B>d d>c B>A B2|Ge/d/ c>B A<F F>c|d>e d>c B>A B<F|1 G>E C>F D>B, B,F:|2 G>E C>F D>B, B,B/c/||
d>B g>e cd/e/ f>d|B>G e/d/c/B/ A<F F>B|G>E c>E FG/A/ B>D|EF/G/ F>E D>B, B,B/c/|
d>B g>e c<A f>d|B<G c>B A<F F>B|G<E g>e f>A B>F|G>E C>F D<B, B,||

